_includes/icons/ios-address.svg

<svg fill="#666" height="50" viewBox="0 0 50 50" width="50" xmlns="http://www.w3.org/2000/svg"><path d="m25 2c-7.167969 0-13 5.832031-13 13 0 5.078125 3.105469 11.347656 6.140625 16.492188 3.03125 5.144531 6.0625 9.117187 6.0625 9.117187l.796875 1.035156.796875-1.035156s3.03125-3.972656 6.0625-9.117187c3.035156-5.144532 6.140625-11.414063 6.140625-16.492188 0-7.167969-5.832031-13-13-13zm0 2c6.085938 0 11 4.914063 11 11 0 4.214844-2.894531 10.445313-5.859375 15.476563-2.570312 4.355468-4.496094 6.863281-5.140625 7.722656-.644531-.859375-2.570312-3.367188-5.140625-7.722656-2.964844-5.03125-5.859375-11.261719-5.859375-15.476563 0-6.085937 4.914063-11 11-11zm0 6c-2.75 0-5 2.25-5 5s2.25 5 5 5 5-2.25 5-5-2.25-5-5-5zm0 2c1.667969 0 3 1.332031 3 3s-1.332031 3-3 3-3-1.332031-3-3 1.332031-3 3-3zm-17.703125 20-5.71875 16h46.84375l-5.71875-16h-7.652344c-.390625.6875-.78125 1.355469-1.171875 2h7.417969l4.28125 12h-41.15625l4.28125-12h7.417969c-.390625-.644531-.78125-1.3125-1.171875-2z"/></svg>

<svg xmlns="http://www.w3.org/2000/svg" viewBox="0 0 50 50" width="50" height="50" fill="#666"><path d="M 25 2 C 17.832031 2 12 7.832031 12 15 C 12 20.078125 15.105469 26.347656 18.140625 31.492188 C 21.171875 36.636719 24.203125 40.609375 24.203125 40.609375 L 25 41.644531 L 25.796875 40.609375 C 25.796875 40.609375 28.828125 36.636719 31.859375 31.492188 C 34.894531 26.347656 38 20.078125 38 15 C 38 7.832031 32.167969 2 25 2 Z M 25 4 C 31.085938 4 36 8.914063 36 15 C 36 19.214844 33.105469 25.445313 30.140625 30.476563 C 27.570313 34.832031 25.644531 37.339844 25 38.199219 C 24.355469 37.339844 22.429688 34.832031 19.859375 30.476563 C 16.894531 25.445313 14 19.214844 14 15 C 14 8.914063 18.914063 4 25 4 Z M 25 10 C 22.25 10 20 12.25 20 15 C 20 17.75 22.25 20 25 20 C 27.75 20 30 17.75 30 15 C 30 12.25 27.75 10 25 10 Z M 25 12 C 26.667969 12 28 13.332031 28 15 C 28 16.667969 26.667969 18 25 18 C 23.332031 18 22 16.667969 22 15 C 22 13.332031 23.332031 12 25 12 Z M 7.296875 32 L 1.578125 48 L 48.421875 48 L 42.703125 32 L 35.050781 32 C 34.660156 32.6875 34.269531 33.355469 33.878906 34 L 41.296875 34 L 45.578125 46 L 4.421875 46 L 8.703125 34 L 16.121094 34 C 15.730469 33.355469 15.339844 32.6875 14.949219 32 Z"/></svg>
